X:1
T:The Pilot of Galilee
T:Lelia Naylor Morris, 1912
T:The Pilot of Galilee
T:Public Domain
T:Public Domain
T:Public Domain
C:Lelia Naylor Morris, 1912
Z:Public Domain
%%score ( 1 2 ) ( 3 4 )
L:1/8
M:4/4
K:F
V:1 treble 
V:2 treble 
V:3 bass 
V:4 bass 
V:1
 C2 [CF][CG] [CA]2 [FA][FA] | [FB][Fd][Fc][FB] [FA]4 | [Fc]2 [Fc][Fd] [Fc]2 [FA][CF] | %3
w: 1.~Out on life’s o- cean with|ils ev- er nigh, I|have a pi- lot on whom|
w: 2.~Won- drous His pow- er and|less is His skill, Bil-|lows and tem- pests o- bey|
w: 3.~Fierce was the tem- pest once|ing in my soul, When|of my bark He, my pi-|
w: 4.~Hear it, ye storm- tossed, up-|the sea of sin, Why|will ye not take the heav’n-|
 [CE][CF][CB][CA] [EG]4 | [FA]2 [GA][GA] [FA]2 [DF]C | [B,D][DF][CE][B,D] [A,C]3 [A,C] | %6
w: I can re- ly; With|Him to guide me, life’s storms|can de- fy, ’Tis Christ of|
w: His sov- ’reign will. Hushed|in- to si- lence at His|“Peace, be still,” This man of|
w: lot, took con- trol. With|voice com- mand- ing a- bove|thun- der’s roll, This man of|
w: ly pi- lot in? Safe-|ly He’ll guide you the ha-|blest to win, This man of|
 [B,D]2 ([Cc][DB]) (CF) [EG]2 | F6 z2 ||"^Refrain" [Fc]2 [Fc][Fc] [Fd] [Fc]2 F | %9
w: Gal- i- * lee. * *|||
w: Gal- i- * lee. * *|||
w: Gal- i- * lee. * *|||
w: Gal- i- * lee. * *|||
 [FA]2 [FA]>[F^G] [FA]4 | [B,D]2 [DF][B,D] [A,C]2 ([CF][FA]) | [EG]2 (DF) [EG]3 [Gc] | %12
w: |||
w: |||
w: |||
w: |||
 [Fc]2 [Fc][Fc] [Fd] [Fc]2 [FA] | [DG][DF][DG][DF] [B,D] C2 [FA] | [Fc] [Fc]2 [FA] F2 (EC) | %15
w: |||
w: |||
w: |||
w: |||
 [CF]6 z2 |] %16
w: |
w: |
w: |
w: |
V:2
 C2 x6 | x8 | x8 | x8 | x7 C | x8 | x4 A2 x2 | F6 x2 || x7 F | x8 | x8 | x2 G2 x4 | x8 | x5 C2 x | %14
w: per-||||I||||||||||
w: match-||||blest||||||||||
w: rag-||||the||||||||||
w: on||||ven||||||||||
 x4 F2 G2 | x8 |] %16
w: ||
w: ||
w: ||
w: ||
V:3
 [F,A,]2 [F,A,][F,B,] [F,C]2 [F,C][F,C] | [F,D][F,B,][F,A,][F,D] [F,C]4 | %2
w: ~ ~ ~ ~ ~ ~|~ ~ ~ ~ ~|
 [F,A,]2 [F,A,][F,B,] [F,A,]2 [F,C][F,A,] | [G,B,][F,A,][E,G,]F, [C,C]4 | %4
w: ~ ~ ~ ~ ~ ~|~ ~ ~ ~ ~|
 [F,C]2 [E,^C][E,C] [D,D]2 [D,A,][F,A,] | F,[B,,F,][B,,F,][B,,F,] F,3 F, | %6
w: ~ ~ ~ ~ ~ ~|~ ~ ~ ~ ~ ~|
 [B,,F,]2 (A,,B,,) (F,A,) [C,B,]2 | [F,A,]6 z2 || [F,A,]2 [F,A,][F,A,] [F,B,] [F,A,]2 [F,A,] | %9
w: ~ He * is * my|on|life’s storm- y sea, This won-|
 [F,C]2 [F,C]>[F,=B,] [F,C]4 | F,2 [B,,F,][B,,F,] F,2 (A,C) | [G,C]2 [G,=B,]2 [C,C]3 [E,_B,] | %12
w: drous Man of Gal-|i- lee; I’m safe in *|Tho’ storms are round|
 [F,A,]2 [F,A,][F,A,] [F,B,] [F,A,]2 [F,C] | [B,,B,][B,,B,][B,,B,][B,,B,] [F,B,] [F,A,]2 [F,C] | %14
w: me sweep- ing, This Pi- lot|of Gal- i- lee. * * *|
 [F,A,] [F,A,]2 [F,C] [D,=B,]2 [C,_B,]2 | [F,A,]6 z2 |] %16
w: ||
V:4
 x8 | x8 | x8 | x3 F, x4 | x8 | F, x2 F,3 F, x | x2 F,2 C,2 x2 | x8 || x8 | x8 | F,2 F,2 F,2 x2 | %11
w: |||~||~ ~ ~|Pi- lot||||His keep- ing,|
 x8 | x8 | x8 | x8 | x8 |] %16
w: |||||

